file/nbcuniversal.svg

<svg clip-rule="evenodd" fill-rule="evenodd" stroke-linejoin="round" stroke-miterlimit="1.41421" viewBox="0 0 560 400" xmlns="http://www.w3.org/2000/svg"><path d="m51.024 149.133h-51.024v-1.969l8.077-8.078c1.97-1.97 2.955-4.202 2.955-6.697v-127.464h1.97l96.533 87.077v-64.027c0-2.496-.985-4.729-2.955-6.698l-8.077-8.077v-1.97h51.025v1.97l-8.077 8.077c-1.97 1.97-2.955 4.203-2.955 6.698v126.478h-1.97l-96.534-87.274v65.209c0 2.495.985 4.728 2.955 6.697l8.077 8.078zm786.02 4.334h-1.971l-39.205-77.817c-4.465-8.668-9.455-14.972-14.971-18.913v-2.167h36.248l19.504 45.706h.395l17.139-45.706h36.84v2.167c-5.646 3.94-10.637 10.245-14.973 18.913zm-504.512-20.981c-13.659-12.937-20.488-30.24-20.488-51.91 0-21.803 6.895-39.205 20.686-52.207s31.258-19.504 52.404-19.504c4.728 0 10.507.427 17.336 1.281 6.83.854 11.098 1.28 12.805 1.28 4.991 0 9.588-1.642 13.791-4.925l1.97.788-11.82 46.691-2.167-.591c-1.444-4.991-4.695-9.325-9.751-13.002-5.057-3.677-11.788-5.516-20.193-5.516-11.952 0-21.835 4.17-29.649 12.51s-11.722 19.471-11.722 33.393c0 13.528 3.677 24.462 11.032 32.802s17.008 12.51 28.96 12.51c13.922 0 24.888-5.45 32.9-16.352l18.519 21.474c-12.871 13.79-30.404 20.687-52.601 20.687-21.016-.002-38.353-6.471-52.012-19.409zm956.028 16.65h-39.79v-12.806c-2.37 4.598-6.18 8.34-11.43 11.229-5.25 2.89-11.36 4.335-18.32 4.335-8.8-.001-16.09-2.531-21.87-7.587-5.78-5.057-8.67-11.721-8.67-19.996 0-10.375 3.78-18.124 11.33-23.246 7.55-5.123 19.34-7.814 35.36-8.078 4.99-.131 8.41-.754 10.25-1.871 1.84-1.116 2.75-3.053 2.75-5.812 0-2.758-1.41-5.057-4.23-6.895-2.82-1.839-7.12-2.758-12.9-2.758-8.8 0-16.81 3.284-24.04 9.851l-15.37-18.125c9.73-9.719 23.84-14.578 42.36-14.578 14.97 0 25.97 3.021 33 9.062 7.03 6.042 10.54 15.235 10.54 27.582v40.583c0 4.071.98 7.092 2.96 9.062l8.07 8.078zm-364.246-38.811c.656 4.991 3.086 9.193 7.289 12.607 4.201 3.415 9.783 5.123 16.744 5.123 8.801 0 15.564-2.627 20.293-7.881l16.352 19.307c-8.932 8.274-22 12.412-39.205 12.412-15.893 0-28.501-4.368-37.825-13.102-9.326-8.734-13.988-20.521-13.988-35.363 0-14.972 4.598-27.153 13.791-36.544s21.67-14.086 37.43-14.086c15.236 0 26.662 4.433 34.279 13.298 7.619 8.865 11.428 20.784 11.428 35.757 0 3.021-.133 5.844-.395 8.472zm164.296 28.761 13.79-20.094c8.8 7.223 19.37 10.835 31.71 10.835 8.41 0 12.61-2.627 12.61-7.88 0-2.496-1.08-4.4-3.25-5.713-2.16-1.314-5.02-2.233-8.57-2.759-3.54-.525-7.55-1.183-12.02-1.97-19.3-3.283-28.96-12.543-28.96-27.778 0-10.901 3.85-18.781 11.53-23.641s17.43-7.289 29.25-7.289c4.6 0 9.43.427 14.48 1.28 5.06.854 8.44 1.281 10.15 1.281 4.33 0 8.67-1.642 13-4.925l1.97.788-9.26 36.052-1.97-.591c-3.94-8.405-12.8-12.608-26.59-12.608-8.28 0-12.41 2.43-12.41 7.289 0 2.232 1.01 4.006 3.05 5.319s4.76 2.2 8.18 2.659c3.41.461 7.29 1.084 11.62 1.872 8.54 1.444 15.66 4.334 21.38 8.669 5.71 4.334 8.56 10.638 8.56 18.912 0 10.507-3.97 18.65-11.92 24.429-7.94 5.779-18.87 8.669-32.8 8.669-18.64.001-33.16-4.269-43.53-12.806zm-612.861-1.773c-10.77-9.72-16.155-23.838-16.155-42.356v-66.982c0-2.496-.985-4.729-2.955-6.698l-8.077-8.077v-1.97h53.192v1.97l-8.078 8.077c-1.97 1.97-2.955 4.203-2.955 6.698v67.77c0 9.981 2.43 17.468 7.29 22.458 4.859 4.992 11.82 7.486 20.882 7.486 8.931 0 15.793-2.527 20.587-7.584s7.191-12.51 7.191-22.36v-67.77c0-2.496-.985-4.729-2.955-6.698l-8.078-8.077v-1.97h53.586v1.97l-8.077 8.077c-1.97 1.97-2.955 4.203-2.955 6.698v66.982c0 18.519-5.418 32.637-16.253 42.356s-25.184 14.579-43.046 14.579c-17.993.001-32.374-4.86-43.144-14.579zm179.465 11.821h-51.616v-1.97h.001l8.077-8.078c1.97-1.97 2.955-4.99 2.955-9.062v-56.344c0-4.071-.985-7.092-2.955-9.062l-8.077-8.077v-1.97h39.795v16.942c2.232-5.385 6.337-9.85 12.313-13.396s12.444-5.319 19.405-5.319c10.244 0 18.19 3.283 23.838 9.85s8.471 15.761 8.471 27.581v39.796c0 4.071.985 7.092 2.955 9.062l8.078 8.078v1.97h-40.584v-52.405c0-5.648-1.313-10.146-3.94-13.495-2.626-3.349-6.501-5.024-11.623-5.024-6.042 0-10.573 1.872-13.594 5.615s-4.531 8.57-4.531 14.48v31.718c0 4.071.985 7.092 2.955 9.062l8.077 8.078zm123.716.001h-51.616v-1.971l8.077-8.078c1.971-1.97 2.955-4.99 2.955-9.062v-56.344c0-4.071-.984-7.092-2.955-9.062l-8.077-8.077v-1.97h40.583v75.454c0 4.071.984 7.092 2.955 9.062l8.078 8.078zm-534.651-.001h-80.575v-1.97l8.077-8.078c1.97-1.97 2.955-4.202 2.955-6.697v-104.414c0-2.496-.985-4.729-2.955-6.698l-8.077-8.077v-1.97h81.363c14.185 0 25.053 3.218 32.604 9.653 7.553 6.435 11.329 14.972 11.329 25.611 0 16.023-8.274 26.07-24.823 30.142v.394c20.357 3.547 30.536 14.775 30.536 33.688 0 12.608-4.433 22.163-13.298 28.664s-21.243 9.752-37.136 9.752zm1103.971 0h-51.62v-1.97l8.08-8.078c1.97-1.97 2.95-4.99 2.95-9.062v-110.914c0-4.072-.98-7.092-2.95-9.063l-8.08-8.077v-1.97h40.59v130.024c0 4.071.98 7.092 2.95 9.062l8.08 8.078zm-292.15 0h-51.61v-1.97l8.08-8.078c1.97-1.97 2.95-4.99 2.95-9.062v-56.344c0-4.071-.98-7.092-2.95-9.062l-8.08-8.077v-1.97h39.79v19.109c2.24-6.042 5.91-11.032 11.04-14.972 5.12-3.94 11.03-5.91 17.73-5.91 4.85 0 8.99.919 12.41 2.758l-7.69 29.552c-4.2-3.678-8.93-5.517-14.18-5.517-5.78 0-10.31 1.904-13.59 5.713-3.29 3.81-4.93 9.194-4.93 16.155v28.565c0 4.071.98 7.092 2.95 9.062l8.08 8.078zm186.95-23.345c3.42-3.48 5.12-7.65 5.12-12.51v-6.502c-1.7.656-5.84 1.182-12.4 1.576-11.83.656-17.73 4.729-17.73 12.215 0 3.021.98 5.516 2.95 7.486s4.92 2.955 8.87 2.955c5.38.001 9.78-1.739 13.19-5.22zm-1002.513-35.954h-34.279v34.082h34.279c14.841 0 22.262-5.845 22.262-17.534 0-11.031-7.421-16.548-22.262-16.548zm689.095-9.653c-3.414 3.546-5.318 7.881-5.713 13.002h37.037c-.264-5.385-1.904-9.784-4.926-13.199-3.02-3.415-7.289-5.122-12.805-5.122-5.648-.001-10.179 1.773-13.593 5.319zm-688.505-44.13h-34.87v29.748h34.87c11.164 0 16.746-4.86 16.746-14.579 0-4.597-1.412-8.274-4.236-11.032s-6.993-4.137-12.51-4.137zm499.485-.394c-3.48-3.283-5.221-7.355-5.221-12.214s1.74-8.931 5.221-12.214c3.48-3.284 7.584-4.925 12.313-4.925s8.832 1.642 12.313 4.925c3.48 3.283 5.221 7.355 5.221 12.214s-1.74 8.931-5.221 12.214-7.584 4.925-12.313 4.925-8.832-1.642-12.313-4.925z" fill="#400095" fill-rule="nonzero" transform="matrix(.370851 0 0 .370851 30 171.36)"/></svg>

<?xml version="1.0" encoding="UTF-8" standalone="no"?>
<!DOCTYPE svg PUBLIC "-//W3C//DTD SVG 1.1//EN" "http://www.w3.org/Graphics/SVG/1.1/DTD/svg11.dtd">
<svg width="100%" height="100%" viewBox="0 0 560 400" version="1.1" xmlns="http://www.w3.org/2000/svg" xmlns:xlink="http://www.w3.org/1999/xlink" xml:space="preserve" xmlns:serif="http://www.serif.com/" style="fill-rule:evenodd;clip-rule:evenodd;stroke-linejoin:round;stroke-miterlimit:1.41421;">
    <g transform="matrix(0.370851,0,0,0.370851,30,171.36)">
        <path d="M51.024,149.133L0,149.133L0,147.164L8.077,139.086C10.047,137.116 11.032,134.884 11.032,132.389L11.032,4.925L13.002,4.925L109.535,92.002L109.535,27.975C109.535,25.479 108.55,23.246 106.58,21.277L98.503,13.2L98.503,11.23L149.528,11.23L149.528,13.2L141.451,21.277C139.481,23.247 138.496,25.48 138.496,27.975L138.496,154.453L136.526,154.453L39.992,67.179L39.992,132.388C39.992,134.883 40.977,137.116 42.947,139.085L51.024,147.163L51.024,149.133ZM837.044,153.467L835.073,153.467L795.868,75.65C791.403,66.982 786.413,60.678 780.897,56.737L780.897,54.57L817.145,54.57L836.649,100.276L837.044,100.276L854.183,54.57L891.023,54.57L891.023,56.737C885.377,60.677 880.386,66.982 876.05,75.65L837.044,153.467ZM332.532,132.486C318.873,119.549 312.044,102.246 312.044,80.576C312.044,58.773 318.939,41.371 332.73,28.369C346.521,15.367 363.988,8.865 385.134,8.865C389.862,8.865 395.641,9.292 402.47,10.146C409.3,11 413.568,11.426 415.275,11.426C420.266,11.426 424.863,9.784 429.066,6.501L431.036,7.289L419.216,53.98L417.049,53.389C415.605,48.398 412.354,44.064 407.298,40.387C402.241,36.71 395.51,34.871 387.105,34.871C375.153,34.871 365.27,39.041 357.456,47.381C349.642,55.721 345.734,66.852 345.734,80.774C345.734,94.302 349.411,105.236 356.766,113.576C364.121,121.916 373.774,126.086 385.726,126.086C399.648,126.086 410.614,120.636 418.626,109.734L437.145,131.208C424.274,144.998 406.741,151.895 384.544,151.895C363.528,151.893 346.191,145.424 332.532,132.486ZM1288.56,149.136L1248.77,149.136L1248.77,136.33C1246.4,140.928 1242.59,144.67 1237.34,147.559C1232.09,150.449 1225.98,151.894 1219.02,151.894C1210.22,151.893 1202.93,149.363 1197.15,144.307C1191.37,139.25 1188.48,132.586 1188.48,124.311C1188.48,113.936 1192.26,106.187 1199.81,101.065C1207.36,95.942 1219.15,93.251 1235.17,92.987C1240.16,92.856 1243.58,92.233 1245.42,91.116C1247.26,90 1248.17,88.063 1248.17,85.304C1248.17,82.546 1246.76,80.247 1243.94,78.409C1241.12,76.57 1236.82,75.651 1231.04,75.651C1222.24,75.651 1214.23,78.935 1207,85.502L1191.63,67.377C1201.36,57.658 1215.47,52.799 1233.99,52.799C1248.96,52.799 1259.96,55.82 1266.99,61.861C1274.02,67.903 1277.53,77.096 1277.53,89.443L1277.53,130.026C1277.53,134.097 1278.51,137.118 1280.49,139.088L1288.56,147.166L1288.56,149.136ZM924.314,110.325C924.97,115.316 927.4,119.518 931.603,122.932C935.804,126.347 941.386,128.055 948.347,128.055C957.148,128.055 963.911,125.428 968.64,120.174L984.992,139.481C976.06,147.755 962.992,151.893 945.787,151.893C929.894,151.893 917.286,147.525 907.962,138.791C898.636,130.057 893.974,118.27 893.974,103.428C893.974,88.456 898.572,76.275 907.765,66.884C916.958,57.493 929.435,52.798 945.195,52.798C960.431,52.798 971.857,57.231 979.474,66.096C987.093,74.961 990.902,86.88 990.902,101.853C990.902,104.874 990.769,107.697 990.507,110.325L924.314,110.325ZM1088.61,139.086L1102.4,118.992C1111.2,126.215 1121.77,129.827 1134.11,129.827C1142.52,129.827 1146.72,127.2 1146.72,121.947C1146.72,119.451 1145.64,117.547 1143.47,116.234C1141.31,114.92 1138.45,114.001 1134.9,113.475C1131.36,112.95 1127.35,112.292 1122.88,111.505C1103.58,108.222 1093.92,98.962 1093.92,83.727C1093.92,72.826 1097.77,64.946 1105.45,60.086C1113.13,55.226 1122.88,52.797 1134.7,52.797C1139.3,52.797 1144.13,53.224 1149.18,54.077C1154.24,54.931 1157.62,55.358 1159.33,55.358C1163.66,55.358 1168,53.716 1172.33,50.433L1174.3,51.221L1165.04,87.273L1163.07,86.682C1159.13,78.277 1150.27,74.074 1136.48,74.074C1128.2,74.074 1124.07,76.504 1124.07,81.363C1124.07,83.595 1125.08,85.369 1127.12,86.682C1129.16,87.995 1131.88,88.882 1135.3,89.341C1138.71,89.802 1142.59,90.425 1146.92,91.213C1155.46,92.657 1162.58,95.547 1168.3,99.882C1174.01,104.216 1176.86,110.52 1176.86,118.794C1176.86,129.301 1172.89,137.444 1164.94,143.223C1157,149.002 1146.07,151.892 1132.14,151.892C1113.5,151.893 1098.98,147.623 1088.61,139.086ZM475.749,137.313C464.979,127.593 459.594,113.475 459.594,94.957L459.594,27.975C459.594,25.479 458.609,23.246 456.639,21.277L448.562,13.2L448.562,11.23L501.754,11.23L501.754,13.2L493.676,21.277C491.706,23.247 490.721,25.48 490.721,27.975L490.721,95.745C490.721,105.726 493.151,113.213 498.011,118.203C502.87,123.195 509.831,125.689 518.893,125.689C527.824,125.689 534.686,123.162 539.48,118.105C544.274,113.048 546.671,105.595 546.671,95.745L546.671,27.975C546.671,25.479 545.686,23.246 543.716,21.277L535.638,13.2L535.638,11.23L589.224,11.23L589.224,13.2L581.147,21.277C579.177,23.247 578.192,25.48 578.192,27.975L578.192,94.957C578.192,113.476 572.774,127.594 561.939,137.313C551.104,147.032 536.755,151.892 518.893,151.892C500.9,151.893 486.519,147.032 475.749,137.313ZM655.214,149.134L603.598,149.134L603.598,147.164L603.599,147.164L611.676,139.086C613.646,137.116 614.631,134.096 614.631,130.024L614.631,73.68C614.631,69.609 613.646,66.588 611.676,64.618L603.599,56.541L603.599,54.571L643.394,54.571L643.394,71.513C645.626,66.128 649.731,61.663 655.707,58.117C661.683,54.571 668.151,52.798 675.112,52.798C685.356,52.798 693.302,56.081 698.95,62.648C704.598,69.215 707.421,78.409 707.421,90.229L707.421,130.025C707.421,134.096 708.406,137.117 710.376,139.087L718.454,147.165L718.454,149.135L677.87,149.135L677.87,96.73C677.87,91.082 676.557,86.584 673.93,83.235C671.304,79.886 667.429,78.211 662.307,78.211C656.265,78.211 651.734,80.083 648.713,83.826C645.692,87.569 644.182,92.396 644.182,98.306L644.182,130.024C644.182,134.095 645.167,137.116 647.137,139.086L655.214,147.164L655.214,149.134ZM778.93,149.135L727.314,149.135L727.314,147.164L735.391,139.086C737.362,137.116 738.346,134.096 738.346,130.024L738.346,73.68C738.346,69.609 737.362,66.588 735.391,64.618L727.314,56.541L727.314,54.571L767.897,54.571L767.897,130.025C767.897,134.096 768.881,137.117 770.852,139.087L778.93,147.165L778.93,149.135ZM244.279,149.134L163.704,149.134L163.704,147.164L171.781,139.086C173.751,137.116 174.736,134.884 174.736,132.389L174.736,27.975C174.736,25.479 173.751,23.246 171.781,21.277L163.704,13.2L163.704,11.23L245.067,11.23C259.252,11.23 270.12,14.448 277.671,20.883C285.224,27.318 289,35.855 289,46.494C289,62.517 280.726,72.564 264.177,76.636L264.177,77.03C284.534,80.577 294.713,91.805 294.713,110.718C294.713,123.326 290.28,132.881 281.415,139.382C272.55,145.883 260.172,149.134 244.279,149.134ZM1348.25,149.134L1296.63,149.134L1296.63,147.164L1304.71,139.086C1306.68,137.116 1307.66,134.096 1307.66,130.024L1307.66,19.11C1307.66,15.038 1306.68,12.018 1304.71,10.047L1296.63,1.97L1296.63,0L1337.22,0L1337.22,130.024C1337.22,134.095 1338.2,137.116 1340.17,139.086L1348.25,147.164L1348.25,149.134ZM1056.1,149.134L1004.49,149.134L1004.49,147.164L1004.49,147.164L1012.57,139.086C1014.54,137.116 1015.52,134.096 1015.52,130.024L1015.52,73.68C1015.52,69.609 1014.54,66.588 1012.57,64.618L1004.49,56.541L1004.49,54.571L1044.28,54.571L1044.28,73.68C1046.52,67.638 1050.19,62.648 1055.32,58.708C1060.44,54.768 1066.35,52.798 1073.05,52.798C1077.9,52.798 1082.04,53.717 1085.46,55.556L1077.77,85.108C1073.57,81.43 1068.84,79.591 1063.59,79.591C1057.81,79.591 1053.28,81.495 1050,85.304C1046.71,89.114 1045.07,94.498 1045.07,101.459L1045.07,130.024C1045.07,134.095 1046.05,137.116 1048.02,139.086L1056.1,147.164L1056.1,149.134ZM1243.05,125.789C1246.47,122.309 1248.17,118.139 1248.17,113.279L1248.17,106.777C1246.47,107.433 1242.33,107.959 1235.77,108.353C1223.94,109.009 1218.04,113.082 1218.04,120.568C1218.04,123.589 1219.02,126.084 1220.99,128.054C1222.96,130.024 1225.91,131.009 1229.86,131.009C1235.24,131.01 1239.64,129.27 1243.05,125.789ZM240.537,89.835L206.258,89.835L206.258,123.917L240.537,123.917C255.378,123.917 262.799,118.072 262.799,106.383C262.799,95.352 255.378,89.835 240.537,89.835ZM929.632,80.182C926.218,83.728 924.314,88.063 923.919,93.184L960.956,93.184C960.692,87.799 959.052,83.4 956.03,79.985C953.01,76.57 948.741,74.863 943.225,74.863C937.577,74.862 933.046,76.636 929.632,80.182ZM241.127,36.052L206.257,36.052L206.257,65.8L241.127,65.8C252.291,65.8 257.873,60.94 257.873,51.221C257.873,46.624 256.461,42.947 253.637,40.189C250.813,37.431 246.644,36.052 241.127,36.052ZM740.612,35.658C737.132,32.375 735.391,28.303 735.391,23.444C735.391,18.585 737.131,14.513 740.612,11.23C744.092,7.946 748.196,6.305 752.925,6.305C757.654,6.305 761.757,7.947 765.238,11.23C768.718,14.513 770.459,18.585 770.459,23.444C770.459,28.303 768.719,32.375 765.238,35.658C761.757,38.941 757.654,40.583 752.925,40.583C748.196,40.583 744.093,38.941 740.612,35.658Z" style="fill:rgb(64,0,149);fill-rule:nonzero;"/>
    </g>
</svg>
